icon_installer/data/icons/scalable/actions/show-shield-warning-symbolic.svg

<?xml version="1.0" encoding="UTF-8"?>
<svg height="16px" viewBox="0 0 16 16" width="16px" xmlns="http://www.w3.org/2000/svg">
    <path d="m 0 2.316406 v 5.507813 c 0 2.214843 1.183594 4.257812 3.109375 5.355469 l 4.890625 2.796874 l 4.890625 -2.796874 c 1.925781 -1.097657 3.109375 -3.140626 3.109375 -5.355469 v -5.507813 l -8 -2.285156 z m 14.726562 1.71875 l -0.726562 -0.964844 v 4.753907 c 0 1.492187 -0.804688 2.878906 -2.101562 3.621093 l -4.394532 2.507813 h 0.992188 l -4.394532 -2.507813 c -1.296874 -0.742187 -2.101562 -2.128906 -2.101562 -3.621093 v -4.753907 l -0.726562 0.964844 l 7 -2 h -0.546876 z m 0 0"/>
    <path d="m 7 4 v 2.988281 c 0 0.558594 0.453125 1.011719 1.011719 1.011719 c 0.550781 -0.007812 0.996093 -0.460938 0.988281 -1.011719 v -2.988281 z m 0 0"/>
    <path d="m 9 10 c 0 0.550781 -0.449219 1 -1 1 s -1 -0.449219 -1 -1 s 0.449219 -1 1 -1 s 1 0.449219 1 1 z m 0 0" fill="#222222"/>
</svg>

<svg xmlns="http://www.w3.org/2000/svg" width="16" height="16"><path d="M0 2.316v5.508a6.16 6.16 0 0 0 3.11 5.356L8 15.977l4.89-2.797A6.16 6.16 0 0 0 16 7.824V2.316L8 .031zm14.727 1.72L14 3.07v4.754a4.181 4.181 0 0 1-2.102 3.621l-4.394 2.508h.992l-4.394-2.508A4.181 4.181 0 0 1 2 7.825V3.07l-.727.965 7-2h-.546zm0 0"/><path d="M7 4v2.988C7 7.547 7.453 8 8.012 8c.55-.008.996-.46.988-1.012V4zm0 0"/><path fill="#222" d="M9 10c0 .55-.45 1-1 1s-1-.45-1-1 .45-1 1-1 1 .45 1 1zm0 0"/></svg>
